projects/plugins/jetpack/images/products/product-jetpack-anti-spam.svg

<svg fill="none" height="128" viewBox="0 0 128 128" width="128" xmlns="http://www.w3.org/2000/svg" xmlns:xlink="http://www.w3.org/1999/xlink"><clipPath id="a"><path d="m36.5713 44.6985h55.1111v42.6667h-55.1111z"/></clipPath><rect fill="#2c3338" height="103.619" rx="12.1905" width="103.619" x="12.1904" y="12.1905"/><g clip-path="url(#a)" fill="#fff"><path d="m67.6245 46.1054 13.3653 35.1208c1.1527 3.005 2.9237 4.0943 5.9517 4.3489.1107.005.2191.0327.3187.0812.0995.0486.188.117.26.2011.0721.0841.1261.1821.1587.2879.0326.1057.0432.2171.0311.3271.0045.1136-.0136.227-.0533.3335-.0397.1066-.1001.2042-.1778.2873-.0777.083-.1711.1499-.2748.1966-.1037.0468-.2157.0725-.3294.0757h-14.6392c-.1184.0029-.236-.0183-.346-.0621s-.2099-.1094-.2938-.1929c-.0839-.0834-.15-.183-.1944-.2927-.0444-.1096-.0661-.2271-.0638-.3454-.0086-.1148.0066-.2301.0447-.3387s.0982-.2082.1767-.2924c.0784-.0843.1735-.1515.2791-.1973.1057-.0458.2197-.0693.3348-.0689 1.4702 0 3.1367-.384 3.1367-2.1745-.013-.7466-.166-1.4842-.4511-2.1744l-3.2076-8.51c-.1295-.3839-.1922-.5133-.5764-.5133h-12.2168c-1.9212 0-4.2894 0-5.3795 2.4332l-2.9237 6.5901c-.2973.5979-.472 1.2493-.5137 1.9157 0 2.3038 3.0114 2.4332 4.5943 2.4332.1152-.0004.2292.0231.3349.0689.1056.0458.2007.113.2791.1973.0784.0842.1386.1838.1767.2924s.0533.2239.0447.3387c.0023.1184-.0195.2361-.0642.3459-.0447.1097-.1113.2092-.1957.2924s-.1849.1483-.2953.1914-.2285.0633-.347.0593h-12.9894c-.1182.0028-.2357-.0183-.3454-.0622-.1098-.0439-.2094-.1095-.293-.1931-.0836-.0835-.1493-.1831-.1932-.2927-.0439-.1097-.0651-.2271-.0622-.3452-.0087-.1147.0065-.2301.0446-.3387s.0983-.2082.1767-.2924c.0785-.0843.1735-.1514.2792-.1972.1056-.0458.2196-.0693.3348-.069 3.1367-.192 4.1767-1.6694 5.3754-4.3489l15.4286-33.7769c.7058-1.4733 2.2428-2.7504 3.6504-2.7504 1.0107.0042 1.3323.5801 1.6498 1.4107zm-11.6947 22.9005c-.0773.1138-.1221.2466-.1295.384 0 .1293.1295.1919.3843.1919h12.6762c.8938 0 1.278-.1919 1.278-.7679-.0012-.289-.0668-.5742-.1921-.8347l-3.5209-9.4699c-.8354-2.1744-2.0466-5.05-2.4309-7.4207 0-.1252-.0668-.1919-.1294-.1919-.0627 0-.1253.0667-.1253.1919-.4808 1.63-1.1027 3.215-1.8587 4.7371z"/><path d="m67.6245 46.1054 13.3653 35.1208c1.1528 3.005 2.9237 4.0943 5.9517 4.3489.1107.005.2191.0327.3187.0812.0995.0486.188.117.26.2011.0721.0841.1261.1821.1587.2879.0327.1057.0432.2171.0311.3271.0045.1136-.0136.227-.0533.3335-.0397.1066-.1001.2042-.1778.2873-.0777.083-.1711.1499-.2748.1966-.1037.0468-.2157.0725-.3294.0757h-14.6392c-.1184.0029-.236-.0183-.346-.0621s-.2099-.1094-.2938-.1929c-.0839-.0834-.15-.183-.1944-.2927-.0444-.1096-.0661-.2271-.0638-.3454-.0086-.1148.0066-.2301.0447-.3387s.0982-.2082.1767-.2924c.0784-.0843.1735-.1515.2791-.1973.1057-.0458.2197-.0693.3348-.0689 1.4702 0 3.1367-.384 3.1367-2.1745-.013-.7466-.166-1.4842-.4511-2.1744l-3.2076-8.51c-.1295-.3839-.1922-.5133-.5764-.5133h-12.2168c-1.9212 0-4.2894 0-5.3795 2.4332l-2.9237 6.5901c-.2973.5979-.472 1.2493-.5137 1.9157 0 2.3038 3.0114 2.4332 4.5943 2.4332.1152-.0004.2292.0231.3349.0689.1056.0458.2007.113.2791.1973.0785.0842.1386.1838.1767.2924s.0533.2239.0447.3387c.0023.1184-.0195.2361-.0642.3459-.0447.1097-.1113.2092-.1957.2924s-.1849.1483-.2953.1914-.2285.0633-.347.0593h-12.9894c-.1182.0028-.2357-.0183-.3454-.0622-.1098-.0439-.2094-.1095-.293-.1931-.0836-.0835-.1493-.1831-.1932-.2927-.0439-.1097-.0651-.2271-.0622-.3452-.0087-.1147.0065-.2301.0446-.3387s.0983-.2082.1767-.2924c.0785-.0843.1735-.1514.2792-.1972.1056-.0458.2196-.0693.3348-.069 3.1367-.192 4.1767-1.6694 5.3754-4.3489l15.4286-33.7769c.7058-1.4733 2.2428-2.7504 3.6504-2.7504 1.0107.0042 1.3323.5801 1.6498 1.4107zm-11.6947 22.9005c-.0773.1138-.1221.2466-.1295.384 0 .1293.1295.192.3843.192h12.6762c.8938 0 1.278-.192 1.278-.768-.0012-.289-.0668-.5742-.1921-.8347l-3.5209-9.4699c-.8354-2.1744-2.0466-5.05-2.4309-7.4206 0-.1253-.0668-.192-.1294-.192-.0627 0-.1253.0667-.1253.192-.4808 1.6299-1.1027 3.2149-1.8587 4.737z"/><path d="m91.6985 67.4985c0 1.6444-.9314 2.5751-2.6146 2.5751s-2.3515-.8556-2.3515-2.1619c0-1.6444.9732-2.5751 2.6146-2.5751 1.6415 0 2.3515.8931 2.3515 2.1619z"/><path d="m41.5408 67.5527c0 1.6403-.9356 2.5752-2.6146 2.5752s-2.3598-.8598-2.3598-2.1661c0-1.6403.9732-2.5751 2.6146-2.5751s2.3598.8973 2.3598 2.166z"/></g></svg>

<svg width="128" height="128" viewBox="0 0 128 128" fill="none" xmlns="http://www.w3.org/2000/svg">
<rect x="12.1904" y="12.1905" width="103.619" height="103.619" rx="12.1905" fill="#2C3338"/>
<g clip-path="url(#clip0_5171_60832)">
<path d="M67.6245 46.1054L80.9898 81.2262C82.1425 84.2312 83.9135 85.3205 86.9415 85.5751C87.0522 85.5801 87.1606 85.6078 87.2602 85.6563C87.3597 85.7049 87.4482 85.7733 87.5202 85.8574C87.5923 85.9415 87.6463 86.0395 87.6789 86.1453C87.7115 86.251 87.7221 86.3624 87.71 86.4724C87.7145 86.586 87.6964 86.6994 87.6567 86.8059C87.617 86.9125 87.5566 87.0101 87.4789 87.0932C87.4012 87.1762 87.3078 87.2431 87.2041 87.2898C87.1004 87.3366 86.9884 87.3623 86.8747 87.3655H72.2355C72.1171 87.3684 71.9995 87.3472 71.8895 87.3034C71.7795 87.2596 71.6796 87.194 71.5957 87.1105C71.5118 87.0271 71.4457 86.9275 71.4013 86.8178C71.3569 86.7082 71.3352 86.5907 71.3375 86.4724C71.3289 86.3576 71.3441 86.2423 71.3822 86.1337C71.4203 86.0251 71.4804 85.9255 71.5589 85.8413C71.6373 85.757 71.7324 85.6898 71.838 85.644C71.9437 85.5982 72.0577 85.5747 72.1728 85.5751C73.643 85.5751 75.3095 85.1911 75.3095 83.4006C75.2965 82.654 75.1435 81.9164 74.8584 81.2262L71.6508 72.7162C71.5213 72.3323 71.4586 72.2029 71.0744 72.2029H58.8576C56.9364 72.2029 54.5682 72.2029 53.4781 74.6361L50.5544 81.2262C50.2571 81.8241 50.0824 82.4755 50.0407 83.1419C50.0407 85.4457 53.0521 85.5751 54.635 85.5751C54.7502 85.5747 54.8642 85.5982 54.9699 85.644C55.0755 85.6898 55.1706 85.757 55.249 85.8413C55.3274 85.9255 55.3876 86.0251 55.4257 86.1337C55.4638 86.2423 55.479 86.3576 55.4704 86.4724C55.4727 86.5908 55.4509 86.7085 55.4062 86.8183C55.3615 86.928 55.2949 87.0275 55.2105 87.1107C55.1261 87.1939 55.0256 87.259 54.9152 87.3021C54.8048 87.3452 54.6867 87.3654 54.5682 87.3614H41.5788C41.4606 87.3642 41.3431 87.3431 41.2334 87.2992C41.1236 87.2553 41.024 87.1897 40.9404 87.1061C40.8568 87.0226 40.7911 86.923 40.7472 86.8134C40.7033 86.7037 40.6821 86.5863 40.685 86.4682C40.6763 86.3535 40.6915 86.2381 40.7296 86.1295C40.7677 86.0209 40.8279 85.9213 40.9063 85.8371C40.9848 85.7528 41.0798 85.6857 41.1855 85.6399C41.2911 85.5941 41.4051 85.5706 41.5203 85.5709C44.657 85.3789 45.697 83.9015 46.8957 81.222L62.3243 47.4451C63.0301 45.9718 64.5671 44.6947 65.9747 44.6947C66.9854 44.6989 67.307 45.2748 67.6245 46.1054ZM55.9298 69.0059C55.8525 69.1197 55.8077 69.2525 55.8003 69.3899C55.8003 69.5192 55.9298 69.5818 56.1846 69.5818H68.8608C69.7546 69.5818 70.1388 69.3899 70.1388 68.8139C70.1376 68.5249 70.072 68.2397 69.9467 67.9792L66.4258 58.5093C65.5904 56.3349 64.3792 53.4593 63.9949 51.0886C63.9949 50.9634 63.9281 50.8967 63.8655 50.8967C63.8028 50.8967 63.7402 50.9634 63.7402 51.0886C63.2594 52.7186 62.6375 54.3036 61.8815 55.8257L55.9298 69.0059Z" fill="white"/>
<path d="M67.6245 46.1054L80.9898 81.2262C82.1426 84.2312 83.9135 85.3205 86.9415 85.5751C87.0522 85.5801 87.1606 85.6078 87.2602 85.6563C87.3597 85.7049 87.4482 85.7733 87.5202 85.8574C87.5923 85.9415 87.6463 86.0395 87.6789 86.1453C87.7116 86.251 87.7221 86.3624 87.71 86.4724C87.7145 86.586 87.6964 86.6994 87.6567 86.8059C87.617 86.9125 87.5566 87.0101 87.4789 87.0932C87.4012 87.1762 87.3078 87.2431 87.2041 87.2898C87.1004 87.3366 86.9884 87.3623 86.8747 87.3655H72.2355C72.1171 87.3684 71.9995 87.3472 71.8895 87.3034C71.7795 87.2596 71.6796 87.194 71.5957 87.1105C71.5118 87.0271 71.4457 86.9275 71.4013 86.8178C71.3569 86.7082 71.3352 86.5907 71.3375 86.4724C71.3289 86.3576 71.3441 86.2423 71.3822 86.1337C71.4203 86.0251 71.4804 85.9255 71.5589 85.8413C71.6373 85.757 71.7324 85.6898 71.838 85.644C71.9437 85.5982 72.0577 85.5747 72.1728 85.5751C73.643 85.5751 75.3095 85.1911 75.3095 83.4006C75.2965 82.654 75.1435 81.9164 74.8584 81.2262L71.6508 72.7162C71.5213 72.3323 71.4586 72.2029 71.0744 72.2029H58.8576C56.9364 72.2029 54.5682 72.2029 53.4781 74.6361L50.5544 81.2262C50.2571 81.8241 50.0824 82.4755 50.0407 83.1419C50.0407 85.4457 53.0521 85.5751 54.635 85.5751C54.7502 85.5747 54.8642 85.5982 54.9699 85.644C55.0755 85.6898 55.1706 85.757 55.249 85.8413C55.3275 85.9255 55.3876 86.0251 55.4257 86.1337C55.4638 86.2423 55.479 86.3576 55.4704 86.4724C55.4727 86.5908 55.4509 86.7085 55.4062 86.8183C55.3615 86.928 55.2949 87.0275 55.2105 87.1107C55.1261 87.1939 55.0256 87.259 54.9152 87.3021C54.8048 87.3452 54.6867 87.3654 54.5682 87.3614H41.5788C41.4606 87.3642 41.3431 87.3431 41.2334 87.2992C41.1236 87.2553 41.024 87.1897 40.9404 87.1061C40.8568 87.0226 40.7911 86.923 40.7472 86.8134C40.7033 86.7037 40.6821 86.5863 40.685 86.4682C40.6763 86.3535 40.6915 86.2381 40.7296 86.1295C40.7677 86.0209 40.8279 85.9213 40.9063 85.8371C40.9848 85.7528 41.0798 85.6857 41.1855 85.6399C41.2911 85.5941 41.4051 85.5706 41.5203 85.5709C44.657 85.3789 45.697 83.9015 46.8957 81.222L62.3243 47.4451C63.0301 45.9718 64.5671 44.6947 65.9747 44.6947C66.9854 44.6989 67.307 45.2748 67.6245 46.1054ZM55.9298 69.0059C55.8525 69.1197 55.8077 69.2525 55.8003 69.3899C55.8003 69.5192 55.9298 69.5819 56.1846 69.5819H68.8608C69.7546 69.5819 70.1388 69.3899 70.1388 68.8139C70.1376 68.5249 70.072 68.2397 69.9467 67.9792L66.4258 58.5093C65.5904 56.3349 64.3792 53.4593 63.9949 51.0887C63.9949 50.9634 63.9281 50.8967 63.8655 50.8967C63.8028 50.8967 63.7402 50.9634 63.7402 51.0887C63.2594 52.7186 62.6375 54.3036 61.8815 55.8257L55.9298 69.0059Z" fill="white"/>
<path d="M91.6985 67.4985C91.6985 69.1429 90.7671 70.0736 89.0839 70.0736C87.4007 70.0736 86.7324 69.218 86.7324 67.9117C86.7324 66.2673 87.7056 65.3366 89.347 65.3366C90.9885 65.3366 91.6985 66.2297 91.6985 67.4985Z" fill="white"/>
<path d="M41.5408 67.5527C41.5408 69.193 40.6052 70.1279 38.9262 70.1279C37.2472 70.1279 36.5664 69.2681 36.5664 67.9618C36.5664 66.3215 37.5396 65.3867 39.181 65.3867C40.8224 65.3867 41.5408 66.284 41.5408 67.5527Z" fill="white"/>
</g>
<defs>
<clipPath id="clip0_5171_60832">
<rect width="55.1111" height="42.6667" fill="white" transform="translate(36.5713 44.6985)"/>
</clipPath>
</defs>
</svg>
